X:0827
M:C
L:1/8
Q:1/4=100
K:D
f|gfed     c3 c|dcBA G3E|AcBd  cefd  |dcB>A A3||
e|ecec     A3 a|afaf d3f|gBec (B2^A)f|edcB  B2z

